icons/1_Primary/Kraken.svg

<svg width="1024" height="1024" viewBox="0 0 1024 1024" fill="none" xmlns="http://www.w3.org/2000/svg">
<g clip-path="url(#clip0_2_2625)">
<path d="M512 1024C794.77 1024 1024 794.77 1024 512C1024 229.23 794.77 0 512 0C229.23 0 0 229.23 0 512C0 794.77 229.23 1024 512 1024Z" fill="#8C72BD"/>
<path d="M256.14 584.42C256.14 574.67 256.31 564.93 256.08 555.18C255.625 536.36 256.988 517.539 260.15 498.98C265.55 467.84 275.36 438.44 291.4 411.25C318.3 365.58 356.23 332 404 309.49C425.097 299.4 447.559 292.456 470.67 288.88C482.76 287.04 494.9 285.54 507.21 285.65C559.51 286.04 608.21 298.96 652.21 327.81C695.32 356.1 727.68 393.53 747.12 441.6C756.093 464.187 762.051 487.857 764.84 512C768.13 538.68 768.29 565.47 767.84 592.32C767.56 606.8 767.62 621.32 767.39 635.76C767.28 642.05 767.06 648.35 765.39 654.53C758.87 678.53 731.47 689.45 711.39 676.14C702.39 670.24 697.97 661.55 696.39 651.14C695.277 644.179 694.718 637.14 694.72 630.09V542.7C694.72 531.28 691.16 521.14 683.36 512.7C669.71 498.05 648.77 497.49 633.45 511.03C624.87 518.66 620.97 528.35 620.14 539.49C619.81 543.67 619.69 547.84 619.69 552.02C619.63 584.16 619.75 616.24 619.52 648.38C619.35 666.59 605.52 680.52 586.94 681.8C578.386 682.44 569.901 679.867 563.144 674.583C556.386 669.3 551.842 661.686 550.4 653.23C549.611 648.371 549.24 643.453 549.29 638.53C549.29 606.22 549.35 573.92 549.29 541.61C549.439 530.982 545.372 520.728 537.98 513.09C522.66 496.99 499.6 497.49 484.73 514.04C477.43 522.12 474.26 531.53 474.26 542.28C474.26 574.2 474.2 606.17 474.26 638.08C474.26 646.32 473.26 654.4 469.86 661.97C467.142 668.283 462.558 673.614 456.724 677.248C450.89 680.881 444.085 682.644 437.22 682.3C423.57 681.85 412.04 673.3 406.81 659.57C404.784 654.175 403.767 648.453 403.81 642.69C403.863 611.777 403.843 580.864 403.75 549.95C403.75 543.1 403.47 536.19 401.41 529.56C396.73 514.35 386.59 504.66 370.94 502.1C355.01 499.48 343.2 507 334.35 519.81C330.12 525.94 328.72 532.81 328.72 540.14C328.72 569.474 328.74 598.807 328.78 628.14C328.78 636.77 328.95 645.41 327 653.93C323.77 668.08 310.18 683.51 289.63 682C275.48 680.94 261.89 669.24 257.94 654.26C256.606 648.961 255.954 643.514 256 638.05C256.17 620.05 256.17 602.24 256.11 584.41L256.14 584.42Z" fill="white"/>
</g>
<defs>
<clipPath id="clip0_2_2625">
<rect width="1024" height="1024" fill="white"/>
</clipPath>
</defs>
</svg>

<svg xmlns="http://www.w3.org/2000/svg" width="1024" height="1024" fill="none">
   <g clip-path="url(#a)">
      <path fill="#8C72BD" d="M512 1024c282.77 0 512-229.23 512-512S794.77 0 512 0 0 229.23 0 512s229.23 512 512 512Z"/>
      <path fill="#fff" d="M256.14 584.42c0-9.75.17-19.49-.06-29.24a292.521 292.521 0 0 1 4.07-56.2c5.4-31.14 15.21-60.54 31.25-87.73C318.3 365.58 356.23 332 404 309.49a239.349 239.349 0 0 1 66.67-20.61c12.09-1.84 24.23-3.34 36.54-3.23 52.3.39 101 13.31 145 42.16 43.11 28.29 75.47 65.72 94.91 113.79a276.684 276.684 0 0 1 17.72 70.4c3.29 26.68 3.45 53.47 3 80.32-.28 14.48-.22 29-.45 43.44-.11 6.29-.33 12.59-2 18.77-6.52 24-33.92 34.92-54 21.61-9-5.9-13.42-14.59-15-25-1.113-6.961-1.672-14-1.67-21.05V542.7c0-11.42-3.56-21.56-11.36-30-13.65-14.65-34.59-15.21-49.91-1.67-8.58 7.63-12.48 17.32-13.31 28.46-.33 4.18-.45 8.35-.45 12.53-.06 32.14.06 64.22-.17 96.36-.17 18.21-14 32.14-32.58 33.42a34.455 34.455 0 0 1-23.796-7.217A34.455 34.455 0 0 1 550.4 653.23a86.25 86.25 0 0 1-1.11-14.7c0-32.31.06-64.61 0-96.92a40.2 40.2 0 0 0-11.31-28.52c-15.32-16.1-38.38-15.6-53.25.95-7.3 8.08-10.47 17.49-10.47 28.24 0 31.92-.06 63.89 0 95.8 0 8.24-1 16.32-4.4 23.89a33.701 33.701 0 0 1-32.64 20.33c-13.65-.45-25.18-9-30.41-22.73a47.018 47.018 0 0 1-3-16.88c.053-30.913.033-61.826-.06-92.74 0-6.85-.28-13.76-2.34-20.39-4.68-15.21-14.82-24.9-30.47-27.46-15.93-2.62-27.74 4.9-36.59 17.71-4.23 6.13-5.63 13-5.63 20.33 0 29.334.02 58.667.06 88 0 8.63.17 17.27-1.78 25.79-3.23 14.15-16.82 29.58-37.37 28.07-14.15-1.06-27.74-12.76-31.69-27.74a64.184 64.184 0 0 1-1.94-16.21c.17-18 .17-35.81.11-53.64l.03.01Z"/>
   </g>
   <defs>
      <clipPath id="a">
         <path fill="#fff" d="M0 0h1024v1024H0z"/>
      </clipPath>
   </defs>
</svg>
